src/status/scalable/liferea-unread.svg

<?xml version="1.0" encoding="UTF-8"?>
<svg xmlns="http://www.w3.org/2000/svg" xmlns:xlink="http://www.w3.org/1999/xlink" width="48px" height="48px" viewBox="0 0 48 48" version="1.1">
<g id="surface1">
<path style=" stroke:none;fill-rule:nonzero;fill:rgb(18.039216%,20.392157%,25.098041%);fill-opacity:1;" d="M 8.53125 33.835938 C 5.433594 33.835938 2.917969 36.359375 2.917969 39.4375 C 2.917969 42.53125 5.433594 45.03125 8.53125 45.03125 C 11.636719 45.03125 14.152344 42.53125 14.152344 39.4375 C 14.152344 36.359375 11.640625 33.835938 8.53125 33.835938 Z M 2.921875 17.242188 L 2.921875 25.324219 C 8.1875 25.324219 13.132812 27.382812 16.859375 31.109375 C 20.578125 34.828125 22.636719 39.796875 22.636719 45.082031 L 30.75 45.082031 C 30.75 29.734375 18.261719 17.242188 2.921875 17.242188 Z M 2.933594 2.917969 L 2.933594 11 C 21.703125 11 36.976562 26.292969 36.976562 45.082031 L 45.082031 45.082031 C 45.082031 21.839844 26.171875 2.917969 2.933594 2.917969 Z M 2.933594 2.917969 "/>
<path style=" stroke:none;fill-rule:nonzero;fill:rgb(50.588238%,63.137257%,75.686276%);fill-opacity:1;" d="M 45.09375 33.621094 C 45.09375 39.921875 40.769531 45.027344 35.429688 45.027344 C 30.09375 45.027344 25.765625 39.921875 25.765625 33.621094 C 25.765625 27.320312 30.09375 22.214844 35.429688 22.214844 C 40.769531 22.214844 45.09375 27.320312 45.09375 33.621094 Z M 45.09375 33.621094 "/>
</g>
</svg>

<svg width="48px" height="48px" version="1.1" viewBox="0 0 48 48" xmlns="http://www.w3.org/2000/svg">
 <g>
  <path d="m8.5312 33.836c-3.0977 0-5.6133 2.5234-5.6133 5.6016 0 3.0938 2.5156 5.5938 5.6133 5.5938 3.1055 0 5.6211-2.5 5.6211-5.5938 0-3.0781-2.5117-5.6016-5.6211-5.6016zm-5.6094-16.594v8.082c5.2656 0 10.211 2.0586 13.938 5.7852 3.7188 3.7188 5.7773 8.6875 5.7773 13.973h8.1133c0-15.348-12.488-27.84-27.828-27.84zm0.011719-14.324v8.082c18.77 0 34.043 15.293 34.043 34.082h8.1055c0-23.242-18.91-42.164-42.148-42.164z" fill="#2e3440"/>
  <path d="m45.094 33.621c0 6.3008-4.3242 11.406-9.6641 11.406-5.3359 0-9.6641-5.1055-9.6641-11.406 0-6.3008 4.3281-11.406 9.6641-11.406 5.3398 0 9.6641 5.1055 9.6641 11.406z" fill="#81a1c1"/>
 </g>
</svg>
